X:1
T:James Gibb editions
T:Credeva che la fiamma - Antonelli da Rimini
%%score [ 1 2 3 ]
L:1/8
Q:1/4=90
M:2/2
K:C
V:1 treble-8 nm="Tenor I" snm="T I"
V:2 treble-8 nm="Tenor II" snm="T II"
V:3 bass nm="Bass" snm="B"
V:1
"^Cornelio Antonelli da Rimini\n(C16th )""^Credeva che la fiamma" z2 c2 c2 d2 | e2 e2 f4 | e6 e2 | %3
w: Cre- de- va|che la fiam-|ma, la|
w: Cre- de- va|che la not-|te, la|
 c2 c2 d3 c | B4 ^c4 ::[M:2/2][K:treble-8] z4 d4 | d4 d2 e2 | e2 e2 ^f4 | g4 ^f4 | (e2 d4) e2 | %10
w: fiam- ma si stu-|tas- se|Stan-|do lon- tan|da te dol-|ce mio|be\- * ne|
w: not- te ri- po-|sas- se|E|non ha- ves-|se da pen-|sar a|te\- * ne|
[M:2/2][K:treble-8] z2 ^f2 f2 f2 | e2 ^f2 g4 | ^f2 e2 d3 ^c | d2 d2 e4 | d8 :| %15
w: Ma~~è tut- to|lo con- tra-|rio, con- tra- ri~~a-|ma- ro me-|ne.|
w: |||||
V:2
 z2 A2 A2 B2 | c2 c2 (c2 B2) | c6 c2 | A2 A2 A2 A2 | (A2 ^G2) A4 ::[M:2/2][K:treble-8] z4 B4 | %6
w: Cre- de- va|che la fiam\- *|ma, la|fiam- ma si stu-|tas\- * se|Stan-|
w: Cre- de- va|che la not\- *|te, la|not- te ri- po-|sas\- * se|E|
 B4 B2 ^c2 | ^c2 c2 d4 | c4 d4 | (c2 B4) c2 |[M:2/2][K:treble-8] z2 d2 d2 d2 | ^c2 d2 e4 | %12
w: do lon- tan|da te dol-|ce mio|be\- * ne|Ma~~è tut- to|lo con- tra-|
w: non ha- ves-|se da pen-|sar a|te\- * ne|||
 d2 c2 B3 A | B2 B2 (d2 ^c2) | d8 :| %15
w: rio, con- tra- ri~~a-|ma- ro me\- *|ne.|
w: |||
V:3
 z2 F,2 F,2 G,2 | C,2 C,2 D,4 | C,6 C,2 | F,2 F,2 D,2 D,2 | E,4 A,,4 ::[M:2/2] z4 G,4 | %6
w: Cre- de- va|che la fiam-|ma, la|fiam- ma si stu-|tas- se|Stan-|
w: Cre- de- va|che la not-|te, la|not- te ri- po-|sas- se|E|
 G,4 G,2 A,2 | A,2 A,2 D,4 | =C,4 D,4 | (A,2 G,4) A,2 |[M:2/2] z2 D,2 D,2 D,2 | A,2 B,2 =C4 | %12
w: do lon- tan|da te dol-|ce mio|be\- * ne|Ma~~è tut- to|lo con- tra-|
w: non ha- ves-|se da pen-|sar a|te\- * ne|||
 B,2 A,2 G,3 ^F, | G,2 G,2 A,4 | D,8 :| %15
w: rio, con- tra- ri~~a-|ma- ro me-|ne.|
w: |||

